build/img/images.svg

<svg width="120" height="120" viewBox="0 0 120 120" fill="none" xmlns="http://www.w3.org/2000/svg">
<path fill-rule="evenodd" clip-rule="evenodd" d="M3 0C1.34314 0 0 1.34315 0 3V72.0157V117C0 118.656 1.34314 120 3 120H107H117C118.656 120 120 118.656 120 117V25.1363V3C120 1.34315 118.656 0 117 0H68.1123H3ZM2 3C2 2.44772 2.44772 2 3 2H68.1123H117C117.552 2 118 2.44772 118 3V25.1363V117C118 117.552 117.552 118 117 118H107.373L29.8775 50.9004C27.1014 48.4968 22.9398 48.6469 20.3441 51.2443L2 69.6004V3ZM28.5684 52.4124L104.317 118H3C2.44771 118 2 117.552 2 117V72.4297L21.7588 52.658C23.6129 50.8027 26.5854 50.6955 28.5684 52.4124ZM61 39.5C61 28.7304 69.7304 20 80.5 20C91.2696 20 100 28.7304 100 39.5C100 50.2696 91.2696 59 80.5 59C69.7304 59 61 50.2696 61 39.5ZM80.5 18C68.6259 18 59 27.6259 59 39.5C59 51.3741 68.6259 61 80.5 61C92.3741 61 102 51.3741 102 39.5C102 27.6259 92.3741 18 80.5 18Z" fill="black"/>
</svg>

<svg width="120" height="120" viewBox="0 0 120 120" fill="none" xmlns="http://www.w3.org/2000/svg"><path fill-rule="evenodd" clip-rule="evenodd" d="M3 0a3 3 0 00-3 3v114a3 3 0 003 3h114c1.656 0 3-1.344 3-3V3a3 3 0 00-3-3H3zM2 3a1 1 0 011-1h114a1 1 0 011 1v114a1 1 0 01-1 1h-9.627L29.877 50.9a7 7 0 00-9.533.344L2 69.6V3zm26.568 49.412L104.317 118H3a1 1 0 01-1-1V72.43l19.759-19.772a5 5 0 016.81-.246zM61 39.5C61 28.73 69.73 20 80.5 20S100 28.73 100 39.5 91.27 59 80.5 59 61 50.27 61 39.5zM80.5 18C68.626 18 59 27.626 59 39.5S68.626 61 80.5 61 102 51.374 102 39.5 92.374 18 80.5 18z" fill="#000"/></svg>
